X:1
T:Some Day
T:Some Day
T:Charles Hutchinson Gabriel
T:M. Victor Staley, 1908
T:Public Domain Courtesy of the Cyber Hymnal™
T:Public Domain Courtesy of the Cyber Hymnal™
C:Charles Hutchinson Gabriel
Z:Public Domain
Z:Courtesy of the Cyber Hymnal™
%%score ( 1 2 ) ( 3 4 )
L:1/8
Q:1/4=95
M:3/4
K:F
V:1 treble 
V:2 treble 
V:3 bass 
V:4 bass 
V:1
 [A,C]2 | [CA]3 [DB] [CA]>[G,E] | [B,G]2 [A,F]2 [_EF]2 | [DB]3 [DB] [DF][_DG] | [CA]4 [FA]2 | %5
w: 1.~Some|day ’twill all be|o- ver— The|toil and cares of|life; Some|
w: 2.~Some|day I’ll see the|man- sions Of|Heav- en’s ci- ty|fair; Some|
w: 3.~Some|day I’ll see the|Sav- ior, And|know Him, face to|face; Some|
 [Ec]3 [EG] [^D^F][EG] | [DB]2 [CA]2 [B,G]2 | [=B,FG]3 [B,D] [B,FG][B,FA] | ([EG-] G3) [B,G]2 x2 | %9
w: day the world be|van- quished With|all this mor- tal|strife; * Some|
w: day I’ll greet with|plea- sure, The|dear ones wait- ing|there; * Some|
w: day re- ceive, un-|mea- sured The|bless- ings of His|grace; * Some|
 [A,^CG]3 [A,CG] [A,CA][A,CE] | [A,EG]2 [A,DF]2 [A,_EF]2 | d3 [Fd] [DF][DFG] | %12
w: day, the jour- ney|end- ed, I’ll|lay my bur- den|
w: day I’ll hear the|voic- es Of|God’s an- gel- ic|
w: day He’ll smile up-|on me From|that white throne a-|
 !fermata!A4 !fermata![^CE]2 [CEA]2 | [=CD^FA]3 [CDFB] [CDFA][CDF] | [=CDA]2 [B,DG]2 [B,D]2 | %15
w: down; Some day,|* in realms su-|per- nal Re-|
w: throng; Some day|* I’ll join the|cho- rus In|
w: bove; Some day|* I’ll know the|full- ness Of|
 [B,CF]3 [B,CE] [B,CE][B,CE] | [A,CF]4 ||[M:4/4]"^Refrain" A2 | c4- [Ec][EB][CE][EB] | A6 [FA]2 | %20
w: ceive, at last, my|crown.||||
w: Heav’n’s im- mor- tal|song.|Some|day, some hap- py day,|* The|
w: His un- dy- ing|love.||||
 [FG]3 [FA] [FG][B,=D][FG][FA] | G6 !fermata![=EB]2 | [FA]3 F [EB][EG][Fc][_EF] | d4- [Fd]FEF | %24
w: ||||
w: Lord will wipe all tears a-|way, And|I shall go to dwell with|Him, To dwell with Him,|
w: ||||
 z [Gc] [EB][EA]<[EG] x3 | F6 |] %26
w: ||
w: * some hap- py||
w: ||
V:2
 x2 | x6 | x6 | x6 | x6 | x6 | x6 | x6 | _B,4 (F E2) x | x6 | x6 | (D F2) x3 | [DF]2 x6 | x6 | x6 | %15
 x6 | x4 ||[M:4/4] (FC) | E G ^F G x4 | (FF E<D C2) x2 | x8 | (E_ED_D C2) x2 | x3 F x4 | %23
 F F F F x4 | c4 F E F x | (C<D C4) |] %26
V:3
 A,2 | C3 D C>G, | B,2 A,2 _E2 | D3 D D_D | [F,,F,C]4 F2 | E3 D ^CE | D2 C2 [F,,C]2 | %7
w: ~|~ ~ ~ ~|~ ~ ~|~ ~ ~ ~|* ~|~ ~ ~ ~|~ ~ ~|
 =B,3 B, B,B, | _B,4 z2 _B,2 | A,3 A, A,A, | A,2 A,2 [C,A,]2 | A,3 B, DD | (D2 ^C2) C2 x2 | %13
w: ~ ~ ~ ~|~ ~|~ ~ ~ ~|~ ~ ~|~ ~ ~ ~|~ * ~|
 =C3 C CC | C2 B,2 B,2 | B,3 B, B,B, | [F,,F,A,]4 ||[M:4/4] (CF,) | %18
w: ~ ~ ~ ~|~ ~ ~|~ ~ ~ ~|~|~ *|
 [C,G,][C,B,][C,A,][C,B,] [C,G,][C,D][C,B,][C,D] | C6 [F,C]2 | %20
w: ~ some hap- py day ~ ~ ~|~ ~|
 [G,=B,]3 [G,B,] [G,B,]G,[G,B,][G,B,] | _B,6 !fermata![=C,C]2 | %22
w: ~ ~ ~ ~ ~ ~|~ all|
 [F,C]3 [A,C] [G,C][B,C][A,C][F,A,] | [B,,B,][B,,B,][B,,B,][B,,B,] [=B,,^G,] z3 | %24
w: tears a- way ~ ~ ~|~ ~ ~ ~ ~|
 z [C,A,][C,G,][C,A,] [C,B,][C,D] [C,C]<[C,B,] | A,<B, A,4 |] %26
w: to dwell with Him, To dwell with|Him, ~ ~|
V:4
 x2 | F,,4 C,2 | F,,6 | F,4- x2 | x6 | ^C,6 | F,4 x2 | G,,6 | (C,_D, C,4) x2 | A,,6 | D,4 x2 | %11
 B,,6 | A,,6 x2 | D,6 | B,,6 | [C,G,]6 | x4 ||[M:4/4] F,2 | x8 | x8 | x5 G, x2 | %21
 C,^C,D,^D, E,2 x2 | x8 | x8 | x8 | [F,,F,]6 |] %26

